X:1
T:Etterstev
T:Etterstev
T:Symra
T:Chr. Haslerud
T:Ivar Aasen
C:Chr. Haslerud
Z:Ivar Aasen
%%score [ 1 2 3 4 ]
L:1/8
Q:1/4=50
M:3/4
K:F
V:1 treble nm="Soprano"
V:2 treble nm="Alto"
V:3 treble-8 nm="Tenor"
V:4 bass nm="Bass"
V:1
!mf!"^Langsomt" D F3/2 E/ | D2 d3/2 ^c/ d3/2 B/ | A2 A z/ G/ F3/2 E/ | D2 D3/2 F/ A3/2 F/ | %4
w: Til Lags aat|al- le kann in- gen|gje- ra, det er no|ga- malt og vil so|
 E2 E z/ C/ F3/2 A/ | c2 c3/2 A/ d3/2 e/ | f2 z!p! c A3/2 G/ | F2 E3/2 D/ B3/2 B/ | %8
w: ve- ra; eg tyk- kjer|stödt at det hö- ver|best aa hjel- pa|den, som det tren- ger|
 A2 z!<(! A d3/2 e/!<)! | f2 f3/2 f/ e3/2 f/ | d2 z |] %11
w: mest, aa hjel- pa|den, som det tren- ger|mest.|
V:2
!mf! D A,3/2 ^C/ | D2 F3/2 E/ D3/2 G/ | E2 E z/ E/ D3/2 ^C/ | D2 D3/2 D/ E3/2 D/ | %4
w: Til Lags aat|al- le kann in- gen|gje- ra, det er no|ga- malt og vil so|
 ^C2 C z/ =C/ C3/2 F/ | G2 G3/2 F/ F3/2 G/ | F2 z!p! F F3/2 E/ | D2 ^C3/2 D/ D3/2 D/ | %8
w: ve- ra; eg tyk- kjer|stödt at det hö- ver|best aa hjel- pa|den, som det tren- ger|
 ^C2 z!<(! E A3/2 G/!<)! | F2 A3/2 A/ G3/2 A/ | F2 z |] %11
w: mest, aa hjel- pa|den, som det tren- ger|mest.|
V:3
!mf! F F3/2 G/ | A2 A3/2 A/ A3/2 d/ | ^c2 c z/ A/ A3/2 A/ | A2 A3/2 F/ E3/2 F/ | %4
w: Til Lags aat|al- le kann in- gen|gje- ra, det er no|ga- malt og vil so|
 A2 A z/ c/ c3/2 c/ | c2 c3/2 c/ B3/2 B/ | c2 z!p! c c3/2 B/ | A2 A3/2 A/ G3/2 G/ | %8
w: ve- ra; eg tyk- kjer|stödt at det hö- ver|best aa hjel- pa|den, som det tren- ger|
 E2 z!<(! ^c A3/2 c/!<)! | d2 d3/2 d/ ^c3/2 c/ | A2 z |] %11
w: mest, aa hjel- pa|den, som det tren- ger|mest.|
V:4
!mf! D, D,3/2 D,/ | F,2 D,3/2 G,/ F,3/2 G,/ | A,2 A, z/ A,/ A,3/2 G,/ | F,2 F,3/2 D,/ ^C,3/2 D,/ | %4
w: Til Lags aat|al- le kann in- gen|gje- ra, det er no|ga- malt og vil so|
 A,,2 A,, z/ C/ A,3/2 A,/ | E,2 E,3/2 F,/ B,,3/2 G,,/ | A,,2 z!p! A, F,3/2 G,/ | %7
w: ve- ra; eg tyk- kjer|stödt at det hö- ver|best aa hjel- pa|
 A,2 G,3/2 F,/ E,3/2 E,/ | A,,2 z!<(! G, F,3/2 E,/!<)! | D,2 F,3/2 D,/ A,,3/2 A,,/ | D,2 z |] %11
w: den, som det tren- ger|mest, aa hjel- pa|den, som det tren- ger|mest.|

